X:1
T:Magnificat
T:Magnificat
T:John Playford
T:Source : The Whole Book of Psalms---London---W.Godbid---1677. Editor André Vierendeels (26/08/16).
T:Notes : Original clefs : G2, G2, F4, F4(BC) Editorial accidentals above the staff Original note values have been halved except m 3, 8, 13 and 18 
T:©
T:©
T:©
C:John Playford
Z:©
%%score [ 1 2 ] 3
L:1/8
Q:1/4=96
M:2/2
K:F
V:1 treble nm="Soprano" snm="S"
V:2 treble-8 nm="Tenor" snm="T"
V:3 bass nm="MusicXML Part"
V:1
 A4 B2 c2 | d2 c2 B2 B2 | A8 || c2 f4 e2 | d2 d2 c4 || A4 c2 B2 | A2 d2 c2 B2 | A8 || %8
w: My Soul doth|ma- gni- fie the|Lord,|my Sp'rit eke|e- ver- more,|re- joy- ced|in the Lord, my|God,|
"^-natural" F4 G2 A2 | B2 c2 F4 || G4 d2 B2 | f2 d2 c2 c2 | B8 || B4 G2 A2 | B2 c2 d4 || B4 F2 G2 | %16
w: which is my|Sa- vi- our.|And why be-|cause he did re-|gard,|and gave re-|spect un- to,|so base e-|
 A2 B2 G2 d2 | B8 || G2 c4 B2 | A2 A2 !fermata!G4 |] %20
w: state of his Hand-|maid,|and let the|Migh- ty go.|
V:2
 ^F4 G2 A2 | B2 A2 G2 G2 | ^F8 || A2 d4 c2 | c2 =B2 c4 || F4 F2 d2 | c2 B2 A2 G2 | ^F8 || %8
w: My Soul doth|ma- gn- fie the|Lord,|my Sp'rit eke|e- ver- more,|re- joy- ced|in the Lord, my|God,|
 A4 c2 F2 | F2 E2 F4 || B4 B2 G2 | B2 B2 B2 A2 | B8 || G4 B2 A2 | G2 A2 ^F4 || G4 A2 B2 | %16
w: which is my|Sa- vi- our.|And why be-|cause he did re-|gard,|and gave re-|spect un- to,|so base e-|
 c2 d2 B2 B2 | G8 || B2 A4 G2 | G2 ^F2 !fermata!G4 |] %20
w: state of his Hand-|maid,|and let the|Migh- ty go.|
V:3
"^Bass""^BC" D,4 G,2 F,2 | B,,2 F,2 G,2 G,,2 | D,8 || A,,2 =B,,4 C,2 | F,2 G,2 C,4 || %5
w: My Soul doth|ma- gn- fie the|Lord,|my Sp'rit eke|e- ver- more,|
"^BC""^B" D,4 A,,2 B,,2 | F,2 B,,2 F,2 G,2 | D,8 ||"^(-natural)" F,4 E,2 F,2 | D,2 C,2 F,4 || %10
w: re- joy- ced|in the Lord, my|God,|which is my|Sa- vi- our.|
"^BC""^B" _E,4 B,,2 E,2 | D,2 _E,2 F,2 F,,2 | B,,8 || G,,4 G,2 F,2 | _E,2 E,2 D,4 || %15
w: And why be-|cause he did re-|gard,|and gave re-|spect un- to,|
"^BC""^B" G,4 D,2 B,,2 | F,2 D,2 _E,2 B,,2 | _E,8 || _E,2 C,4 G,2 | C,2 D,2 !fermata!G,,4 |] %20
w: so base e-|state of his Hand-|maid,|and let the|Migh- ty go.|

